X: 267
T: Pigeon on the Gate
R:reel
M:4/4
L:1/8
K:Edor
dc|"Em"BE~E2 BEdE|BE~E2 "(Bm)"dBAF|"D"D2 (3FED ADFE|DEFA "(Bm)"BAFA|
"Em"BE~E2 BEdE|BE~E2 "(Bm)"B2AF|"D"D2FA dfec|dBAF "Em" E2:|
FA|"Em"Beed efed|(3Bcd ef "G"gedB|"D"Addc ~d3B|A2FE DEFA|
"Em"Beed efed|(3Bcd ef "G"g2fg|"D"afge fdec|dBAF "Em"E2:|


